static/img/card/safespring_card_3.svg

<svg xmlns="http://www.w3.org/2000/svg" id="Lager_1" viewBox="0 0 340 240"><defs><style>.cls-1,.cls-2{fill:#32cd32}.cls-1{opacity:.1}</style></defs><path d="M-3.5-3.5h347v247h-347z" class="cls-1"/><path d="m218.19 87.85-46-17.68a6.3 6.3 0 0 0-4.41 0l-46 17.68a3.1 3.1 0 0 0-2 2.93V98a3.15 3.15 0 0 0 3.14 3.14h94.18a3.15 3.15 0 0 0 3.13-3.14v-7.22a3.1 3.1 0 0 0-2.04-2.93m-85.86 19.59v31.39h-3.14a3.15 3.15 0 0 0-3.14 3.14v9.42H214V142a3.15 3.15 0 0 0-3.14-3.14h-3.14v-31.42h-12.61v31.39h-18.83v-31.39h-12.56v31.39h-18.83v-31.39Zm84.76 50.23h-94.18a3.14 3.14 0 0 0-3.14 3.14v6.28a3.15 3.15 0 0 0 3.14 3.14h94.18a3.15 3.15 0 0 0 3.14-3.14v-6.28a3.14 3.14 0 0 0-3.14-3.14" class="cls-2"/></svg>

<svg id="Lager_1" data-name="Lager 1" xmlns="http://www.w3.org/2000/svg" viewBox="0 0 340 240"><defs><style>.cls-1,.cls-2{fill:#32cd32;}.cls-1{opacity:0.1;}</style></defs><rect class="cls-1" x="-3.5" y="-3.5" width="347" height="247"/><path class="cls-2" d="M218.19,87.85l-46-17.68a6.31,6.31,0,0,0-4.41,0l-46,17.68a3.14,3.14,0,0,0-2,2.93V98a3.15,3.15,0,0,0,3.14,3.14h94.18A3.15,3.15,0,0,0,220.23,98V90.78A3.14,3.14,0,0,0,218.19,87.85Zm-85.86,19.59v31.39h-3.14a3.15,3.15,0,0,0-3.14,3.14v9.42H214V142a3.15,3.15,0,0,0-3.14-3.14h-3.14V107.44H195.11v31.39H176.28V107.44H163.72v31.39H144.89V107.44Zm84.76,50.23H122.91a3.14,3.14,0,0,0-3.14,3.14v6.28a3.15,3.15,0,0,0,3.14,3.14h94.18a3.15,3.15,0,0,0,3.14-3.14v-6.28A3.14,3.14,0,0,0,217.09,157.67Z"/></svg>
